images/round-box-cross.svg

<svg width="24" height="24" viewBox="0 0 24 24" fill="none" xmlns="http://www.w3.org/2000/svg">
<g clip-path="url(#clip0_30_1364)">
<path d="M15.8253 8.11885C15.4878 7.78135 14.9628 7.78135 14.6253 8.11885L11.9628 10.7813L9.30029 8.11885C8.96279 7.78135 8.43779 7.78135 8.10029 8.11885C7.76279 8.45635 7.76279 8.98135 8.10029 9.31885L10.7628 11.9813L8.10029 14.6438C7.76279 14.9813 7.76279 15.5063 8.10029 15.8438C8.25029 15.9938 8.47529 16.1063 8.70029 16.1063C8.92529 16.1063 9.15029 16.0313 9.30029 15.8438L11.9628 13.1813L14.6253 15.8438C14.7753 15.9938 15.0003 16.1063 15.2253 16.1063C15.4503 16.1063 15.6753 16.0313 15.8253 15.8438C16.1628 15.5063 16.1628 14.9813 15.8253 14.6438L13.1628 11.9813L15.8253 9.31885C16.1628 8.98135 16.1628 8.41885 15.8253 8.11885Z" fill="#4C4C4C"/>
<path d="M20.9627 0.65625H2.9627C1.6877 0.65625 0.637695 1.70625 0.637695 2.98125V20.9813C0.637695 22.2563 1.6877 23.3438 3.0002 23.3438H21.0002C22.2752 23.3438 23.3627 22.2938 23.3627 20.9813V2.98125C23.3252 1.70625 22.2377 0.65625 20.9627 0.65625ZM21.6377 20.9813C21.6377 21.3563 21.3377 21.6562 20.9627 21.6562H2.9627C2.5877 21.6562 2.2877 21.3563 2.2877 20.9813V2.98125C2.3252 2.60625 2.5877 2.34375 2.9627 2.34375H20.9627C21.3377 2.34375 21.6377 2.64375 21.6377 3.01875V20.9813Z" fill="#4C4C4C"/>
</g>
<defs>
<clipPath id="clip0_30_1364">
<rect width="24" height="24" fill="white"/>
</clipPath>
</defs>
</svg>

<svg xmlns="http://www.w3.org/2000/svg" width="24" height="24" fill="none"><g fill="#4C4C4C" clip-path="url(#a)"><path d="M15.825 8.119a.84.84 0 0 0-1.2 0l-2.662 2.662L9.3 8.12a.84.84 0 0 0-1.2 0 .84.84 0 0 0 0 1.2l2.663 2.662L8.1 14.644a.84.84 0 0 0 0 1.2c.15.15.375.262.6.262s.45-.075.6-.262l2.663-2.663 2.662 2.663c.15.15.375.262.6.262s.45-.075.6-.262a.84.84 0 0 0 0-1.2l-2.662-2.663 2.662-2.662c.338-.338.338-.9 0-1.2"/><path d="M20.963.656h-18A2.337 2.337 0 0 0 .638 2.981v18A2.377 2.377 0 0 0 3 23.344h18a2.377 2.377 0 0 0 2.363-2.363v-18c-.038-1.275-1.125-2.325-2.4-2.325m.675 20.325c0 .375-.3.675-.675.675h-18a.67.67 0 0 1-.675-.675v-18c.037-.375.3-.637.675-.637h18c.375 0 .675.3.675.675z"/></g><defs><clipPath id="a"><path fill="#fff" d="M0 0h24v24H0z"/></clipPath></defs></svg>
